X:1
T:Morgenlied, 87.87.87 D
T:Frederick Charles Maker, 1881
T:Morgenlied, 87.87.87 D
T:Public Domain
C:Frederick Charles Maker, 1881
Z:Public Domain
%%score ( 1 2 ) ( 3 4 )
L:1/8
M:4/4
K:Bb
V:1 treble 
V:2 treble 
V:3 bass 
V:4 bass 
V:1
 B3 B B2 F2 | [FB]2 [Ec]2 [Dd]2 [FB]2 | [EG]3 [EG] F2 [FB]2 | [Fe]2 [Fd]2 [Fc]4 | c3 c c2 G2 | %5
 [Gc]2 [Fd]2 [Ee]2 [Gc]2 | [FA]3 [FA] [FB]2 [Fd]2 | [Fd]2 [Ec]2 [DB]4 | [FA]3 [=EG] F2 [Fd]2 | %9
 [=Ec]2 [EG]2 [FA]2 F2 | [FA]3 [=EB] [Fc]2 F2 | [GB]2 [FA]2 [=EG]4 | [FA]3 [=EG] F2 [Fd]2 | %13
 [=Ec]2 G2 [FA]2 F2 | [FA]3 [=EA] [Fc]2 [FB]2 | [FA]2 [=EG]2 F4 | B3 B B2 F2 | %17
 [FB]2 [Ec]2 [Dd]2 [FB]2 | [EG]3 [EG] F2 [FB]2 | [Fe]2 [Fd]2 [Fc]4 | c3 c c2 G2 | %21
 [Gc]2 [Fd]2 [Ee]2 [Gc]2 | [FA]3 [FA] [FB]2 [Fd]2 | [Bf]2 [Af]2 B4 |] %24
V:2
 B3 B B2 F2 | x8 | x4 F2 x2 | x8 | c3 c c2 G2 | x8 | x8 | x8 | x4 F2 x2 | x6 F2 | x6 F2 | x8 | %12
 x4 F2 x2 | x2 G2 F2 x2 | x8 | x4 F4 | B3 B B2 F2 | x8 | x4 F2 x2 | x8 | c3 c c2 G2 | x8 | x8 | %23
 x4 B4 |] %24
V:3
 B,3 B, B,2 F,2 | [D,B,]2 [C,A,]2 [B,,B,]2 [D,B,]2 | [E,B,]3 [E,B,] [D,B,]2 [D,B,]2 | %3
 [C,A,]2 [B,,B,]2 [F,A,]4 | C3 C C2 G,2 | [E,C]2 [D,=B,]2 [C,C]2 [E,C]2 | %6
 [F,C]3 [E,C] [D,B,]2 [B,,B,]2 | [F,B,]2 [F,A,]2 [B,,B,]4 | [F,C]3 [F,B,] [F,A,]2 [B,,B,]2 | %9
 [C,G,]2 [C,C]2 [F,C]2 [F,A,]2 | [F,C]3 [G,C] [A,C]2 [D,A,]2 | [=E,C]2 [F,C]2 [C,C]4 | %12
 [F,C]3 [F,B,] [F,A,]2 (B,A,) | [C,G,]2 [=E,C]2 [F,C]2 [F,A,]2 | [F,C]3 [G,B,] A,2 [B,D]2 | %15
 C2 [C,B,]2 [F,A,]4 | B,3 B, B,2 F,2 | [D,B,]2 [C,A,]2 [B,,B,]2 [D,B,]2 | %18
 [E,B,]3 [E,B,] [D,B,]2 [D,B,]2 | [C,A,]2 [B,,B,]2 [F,A,]4 | C3 C C2 G,2 | %21
 [E,C]2 [D,=B,]2 [C,C]2 [E,C]2 | [F,C]3 [E,C] [D,B,]2 [B,,B,]2 | [F,,F,D]2 [F,,F,E]2 [B,,B,D]4 |] %24
V:4
 B,3 B, B,2 F,2 | x8 | x8 | x8 | C3 C C2 G,2 | x8 | x8 | x8 | x8 | x8 | x8 | x8 | x6 B,,2 | x8 | %14
 x4 A,2 x2 | C2 x6 | B,3 B, B,2 F,2 | x8 | x8 | x8 | C3 C C2 G,2 | x8 | x8 | x8 |] %24

